X: 65
T:Have a Drink w' Me
T:Old As the Hills
R:jig
S:Mike Rafferty from Barrel Rafferty
N:the version on The Branch Line is slightly different
D:The Branch Line, Jack and Fr. Charlie Coen
Z:Lesl
M:6/8
L:1/8
K:G
d3|:BAG E{D}ED| EGD E2d| BAB GED| EA{B}A {G}AGA|
BAG E2D| EGD E2d|BAB GED|1 EGG G2A:|2 EGG G2B||
|c2d efg|ded BAG|c2d ege|deg gdB|
c2d e~e2|ded BAB|GED EGG |G5B||
|c2d efg|ded BAG|c2d e~e2|deg gdB|
c2d efg|ded BAB|GED EGG |G5B||
<end>
<start>
